svg/color/sonyon.svg

<svg width="40" height="40" viewBox="0 0 40 40" fill="none" xmlns="http://www.w3.org/2000/svg">
<g clip-path="url(#clip0_819_3587)">
<path d="M20 0C31.0457 0 40 8.9543 40 20C40 31.0457 31.0457 40 20 40C8.95431 40 7.90517e-06 31.0457 0 20C6.58765e-07 8.95431 8.95431 1.97595e-06 20 0Z" fill="#D9D9D9"/>
<path d="M26 6C30.4183 6 34 9.58172 34 14V26C34 30.4183 30.4183 34 26 34H14C9.58172 34 6 30.4183 6 26V14C6 9.58172 9.58172 6 14 6H26Z" fill="black"/>
<g clip-path="url(#clip1_819_3587)">
<path d="M17.1254 18.2401C17.8929 18.2401 18.5066 18.432 18.9762 18.8587C19.2968 19.1491 19.4761 19.5632 19.4711 19.9974C19.4699 20.2116 19.4254 20.4233 19.3404 20.6199C19.2553 20.8164 19.1314 20.9938 18.9762 21.1413C18.5368 21.5453 17.8526 21.7599 17.1253 21.7599C16.3983 21.7599 15.7266 21.5453 15.2797 21.1413C14.954 20.8509 14.7722 20.4343 14.7772 19.9974C14.7772 19.5658 14.959 19.1516 15.2797 18.8587C15.6963 18.4799 16.4336 18.2401 17.1254 18.2401ZM17.1279 21.2978C17.5118 21.2978 17.8678 21.1639 18.1178 20.9165C18.3677 20.6666 18.4788 20.3661 18.4788 19.9974C18.4788 19.6439 18.3551 19.3133 18.1177 19.0784C17.8728 18.836 17.5067 18.6996 17.1279 18.6996C16.7492 18.6996 16.3831 18.836 16.1357 19.0784C15.8983 19.3132 15.7746 19.6439 15.7746 19.9975C15.7696 20.3384 15.8983 20.6692 16.1357 20.9166C16.3831 21.1615 16.7467 21.2978 17.1279 21.2978ZM13.0931 19.659C13.2268 19.6944 13.3556 19.7374 13.4819 19.7954C13.5986 19.8484 13.7053 19.921 13.7975 20.01C13.9617 20.1817 14.055 20.4114 14.0525 20.6488C14.0541 20.7741 14.0265 20.898 13.9717 21.0107C13.9169 21.1234 13.8365 21.2217 13.7369 21.2978C13.5605 21.4317 13.3599 21.5303 13.1461 21.5882C12.8244 21.6891 12.4883 21.7368 12.1513 21.7296C11.8579 21.7296 11.6957 21.6958 11.4731 21.6494L11.4089 21.6361C11.1639 21.5806 10.9242 21.5049 10.6943 21.4039C10.684 21.3968 10.6716 21.3932 10.659 21.3938C10.6212 21.3938 10.5908 21.4266 10.5908 21.4644V21.6336H10.101V20.4014H10.5378C10.5403 20.5262 10.5799 20.6475 10.6514 20.7498C10.8282 20.967 11.0176 21.0504 11.1993 21.116C11.5048 21.217 11.8255 21.27 12.1462 21.2801C12.6067 21.2801 12.8758 21.1684 12.9341 21.1443L12.9416 21.1412L12.9468 21.1393C12.9981 21.1204 13.2067 21.044 13.2067 20.8129C13.2067 20.5844 13.0118 20.5346 12.8842 20.5021L12.8658 20.4973C12.7235 20.4589 12.3975 20.4246 12.0411 20.387L11.9139 20.3737C11.5099 20.3308 11.1059 20.2676 10.9166 20.2272C10.5018 20.1358 10.3381 19.9841 10.2366 19.8901L10.2298 19.8838C10.0816 19.7258 9.99946 19.5172 10 19.3007C10 18.8865 10.2828 18.6365 10.6313 18.4826C11.0024 18.3159 11.4443 18.2426 11.8306 18.2426C12.5148 18.2452 13.0703 18.4674 13.2698 18.5709C13.3506 18.6139 13.391 18.5609 13.391 18.5204V18.3968H13.8303V19.4698H13.4364C13.4011 19.3105 13.3152 19.167 13.1915 19.0607C13.1161 19.0001 13.0328 18.95 12.944 18.9118C12.6133 18.7729 12.2598 18.7022 11.9013 18.7072C11.5327 18.7072 11.1792 18.778 11.0024 18.8866C10.8913 18.9548 10.8358 19.0406 10.8358 19.1416C10.8358 19.2855 10.9569 19.3436 11.0176 19.3613C11.1815 19.411 11.5449 19.4471 11.8276 19.4754C11.8889 19.4814 11.9464 19.4872 11.9973 19.4925C12.2699 19.5204 12.8406 19.5959 13.0931 19.659ZM28.2325 18.8285V18.4296H30V18.8209H29.6036C29.4597 18.8209 29.4016 18.8488 29.293 18.9699L28.1038 20.3283C28.0915 20.345 28.0861 20.3658 28.0886 20.3864V21.005C28.0906 21.0338 28.094 21.0624 28.0987 21.0909C28.1056 21.1091 28.1168 21.1255 28.1313 21.1387C28.1458 21.1518 28.1631 21.1614 28.182 21.1666C28.218 21.1716 28.2543 21.1741 28.2906 21.1741H28.6946V21.5656H26.5509V21.1742H26.9348C26.9711 21.1742 27.0073 21.1717 27.0433 21.1666C27.0622 21.161 27.0798 21.1513 27.0946 21.1382C27.1095 21.1251 27.1213 21.1089 27.1292 21.0908C27.1341 21.0633 27.1367 21.0354 27.1367 21.0074V20.3889C27.1367 20.3688 27.1367 20.3688 27.1089 20.3359C26.7175 19.89 26.3253 19.4448 25.9323 19.0003C25.8692 18.9346 25.7606 18.8285 25.594 18.8285H25.2127V18.4372H27.369V18.8285H27.1089C27.0508 18.8285 27.0104 18.8866 27.0609 18.9498C27.0609 18.9498 27.7856 19.8158 27.7932 19.8259C27.8008 19.836 27.8058 19.836 27.8159 19.8284C27.826 19.8209 28.5608 18.9573 28.5658 18.9498C28.5778 18.9337 28.583 18.9135 28.5801 18.8936C28.5773 18.8737 28.5667 18.8558 28.5507 18.8437C28.5357 18.8338 28.5181 18.8285 28.5002 18.8285H28.2325ZM22.9958 18.8259H23.3998C23.5842 18.8259 23.617 18.8966 23.6195 19.0684L23.6423 20.3737L21.491 18.437H19.9533V18.8284H20.2967C20.5442 18.8284 20.5618 18.9648 20.5618 19.0859V20.9308C20.5622 21.0379 20.5626 21.1766 20.4103 21.1766H19.9887V21.5655H21.7915V21.1741H21.3521C21.1754 21.1741 21.1678 21.0933 21.1653 20.9216V19.3536L23.6423 21.5629H24.2735L24.2407 19.0657C24.2432 18.884 24.2558 18.8234 24.4427 18.8234H24.8365V18.4319H22.9958V18.8259Z" fill="white"/>
</g>
</g>
<defs>
<clipPath id="clip0_819_3587">
<rect width="40" height="40" fill="white"/>
</clipPath>
<clipPath id="clip1_819_3587">
<rect width="20" height="20" fill="white" transform="translate(10 10)"/>
</clipPath>
</defs>
</svg>

<svg xmlns="http://www.w3.org/2000/svg" width="40" height="40" fill="none" viewBox="0 0 40 40"><g clip-path="url(#sonyon_svg-a)"><path fill="#D9D9D9" d="M20 0c11.046 0 20 8.954 20 20s-8.954 20-20 20S0 31.046 0 20 8.954 0 20 0"/><path fill="#000" d="M26 6a8 8 0 0 1 8 8v12a8 8 0 0 1-8 8H14a8 8 0 0 1-8-8V14a8 8 0 0 1 8-8z"/><g clip-path="url(#sonyon_svg-b)"><path fill="#fff" d="M17.125 18.24c.768 0 1.382.192 1.851.619.32.29.5.704.495 1.138a1.6 1.6 0 0 1-.495 1.144c-.44.404-1.123.619-1.85.619s-1.4-.215-1.846-.619a1.5 1.5 0 0 1-.503-1.144c0-.431.182-.845.503-1.138.416-.38 1.154-.619 1.845-.619m.003 3.058c.384 0 .74-.134.99-.381.25-.25.36-.55.36-.92a1.28 1.28 0 0 0-.36-.919c-.245-.242-.611-.378-.99-.378s-.745.136-.992.378a1.28 1.28 0 0 0-.361.92 1.3 1.3 0 0 0 .36.919c.248.244.612.38.993.38m-4.035-1.639q.2.05.389.136.176.08.316.215a.9.9 0 0 1 .255.639.8.8 0 0 1-.316.649 1.7 1.7 0 0 1-.59.29 3.1 3.1 0 0 1-.996.142c-.293 0-.455-.034-.678-.08l-.064-.014a4 4 0 0 1-.715-.232.06.06 0 0 0-.035-.01.07.07 0 0 0-.068.07v.17h-.49V20.4h.437a.63.63 0 0 0 .113.349c.177.217.367.3.548.366.306.101.627.154.947.164.46 0 .73-.112.788-.136l.008-.003.005-.002c.051-.019.26-.095.26-.326 0-.229-.195-.278-.323-.31l-.018-.006c-.143-.038-.468-.072-.825-.11l-.127-.013a12 12 0 0 1-.997-.147c-.415-.091-.579-.243-.68-.337l-.007-.006A.85.85 0 0 1 10 19.3c0-.414.283-.664.631-.818.371-.167.813-.24 1.2-.24.684.002 1.24.224 1.439.328.08.043.121-.01.121-.05v-.124h.44v1.073h-.395a.76.76 0 0 0-.245-.41 1 1 0 0 0-.247-.148 2.6 2.6 0 0 0-1.043-.205c-.368 0-.722.071-.899.18q-.165.103-.166.255c0 .143.12.202.182.22.163.049.527.085.81.113l.17.017c.272.028.843.104 1.095.167m15.14-.83v-.4H30v.392h-.396c-.144 0-.202.028-.311.149l-1.19 1.358a.08.08 0 0 0-.014.058v.619l.01.086a.12.12 0 0 0 .083.076 1 1 0 0 0 .109.007h.404v.392H26.55v-.392h.384a1 1 0 0 0 .108-.007.14.14 0 0 0 .086-.076l.008-.084v-.618c0-.02 0-.02-.028-.053L25.932 19c-.063-.065-.171-.172-.338-.172h-.381v-.39h2.156v.39h-.26c-.058 0-.099.059-.048.122 0 0 .725.866.732.876q.01.015.023.002c.01-.007.745-.87.75-.878a.076.076 0 0 0-.015-.106.1.1 0 0 0-.05-.016zm-5.237-.003h.404c.184 0 .217.07.22.242l.022 1.306-2.151-1.937h-1.538v.391h.344c.247 0 .265.137.265.258v1.845c0 .107 0 .246-.152.246h-.421v.389h1.802v-.392h-.439c-.177 0-.184-.08-.187-.252v-1.568l2.477 2.209h.631l-.032-2.497c.002-.182.015-.243.202-.243h.393v-.391h-1.84z"/></g></g><defs><clipPath id="sonyon_svg-a"><path fill="#fff" d="M0 0h40v40H0z"/></clipPath><clipPath id="sonyon_svg-b"><path fill="#fff" d="M10 10h20v20H10z"/></clipPath></defs></svg>
